X:1
T: The Green Branch
C:
R:Reel
Q: 232
K:G
M:4/4
L:1/8
ge|:dG BG dG GB|dG BG AG E2|dG BG de fg|af df g2 fe|
dG BG dG GB|dG BG AG E2|dG BG de fg|af ((3def) g2 fe|
dg gf gb ag|fd ef gf ef|dg gf gb ag|fe de fe e2|
dg gf gb ag|fd ef ge dB|c2 cA BA GB|de fa bg g2:|
